assets/Woman tipping hand/Default/Flat/woman_tipping_hand_flat_default.svg

<svg width="32" height="32" viewBox="0 0 32 32" fill="none" xmlns="http://www.w3.org/2000/svg">
<path d="M21.7483 13.0509C21.7483 13.7079 21.6059 14.3386 21.3342 14.9036C21.2436 15.0876 21.2436 15.311 21.3342 15.4949C21.593 16.0468 21.7483 16.6644 21.7483 17.3214C21.7483 19.6341 19.9106 21.5 17.633 21.5H6.65887C4.38123 21.5 2.54358 19.6341 2.54358 17.3214C2.54358 16.6644 2.69887 16.0468 2.9577 15.4949C3.04829 15.311 3.04829 15.0876 2.9577 14.9036C2.69887 14.3386 2.54358 13.721 2.54358 13.0509C2.54358 12.1725 2.8012 11.3727 3.23934 10.6904L3.24227 10.6856C3.68227 10.0024 3.91521 9.20081 3.91521 8.38612C3.91521 6.0578 5.74611 4.14928 8.02531 4.09069C8.06144 4.08976 8.09768 4.08929 8.13404 4.08929C8.36698 4.08929 8.58698 3.97102 8.71639 3.78706C9.47992 2.70957 10.7352 2 12.1458 2C13.5564 2 14.8118 2.70957 15.5753 3.78706C15.7048 3.98416 15.9248 4.08929 16.1577 4.08929C18.4871 4.08929 20.3765 6.00775 20.3765 8.37298V8.38612C20.3765 9.20081 20.6095 10.0024 21.0495 10.6856L21.0521 10.6897C21.1932 10.8988 21.3088 11.1208 21.4117 11.3558H21.4049C21.6253 11.8748 21.7483 12.4441 21.7483 13.0509Z" fill="#F1A11E"/>
<path d="M8 12.6575C8 13.7621 7.10457 14.6575 6 14.6575C4.89543 14.6575 4 13.7621 4 12.6575C4 11.553 4.89543 10.6575 6 10.6575C7.10457 10.6575 8 11.553 8 12.6575Z" fill="#FDBB11"/>
<path d="M20 12.6575C20 13.7621 19.1046 14.6575 18 14.6575C16.8954 14.6575 16 13.7621 16 12.6575C16 11.553 16.8954 10.6575 18 10.6575C19.1046 10.6575 20 11.553 20 12.6575Z" fill="#FDBB11"/>
<path d="M22 30V29.6161C22 24.311 17.5255 20 12 20C6.47447 20.0098 2 24.311 2 29.6161V30H22Z" fill="#8B62BF"/>
<path d="M12 23.5C10.619 23.5 9.5 22.2845 9.5 20.7845V19H14.5V20.7845C14.5 22.2845 13.381 23.5 12 23.5Z" fill="#FCB100"/>
<path d="M25 17L23.0039 16.7852L21 17C20.8619 17 20.75 17.1119 20.75 17.25V18L23.0039 18.2969L25.25 18V17.25C25.25 17.1119 25.1381 17 25 17Z" fill="#8B62BF"/>
<path d="M26 30V18.91C26 18.41 25.6126 18 25.1402 18H20.8598C20.3874 18 20 18.41 20 18.91V30H26Z" fill="#A17FD5"/>
<path d="M5.62361 11.4551L5.61063 11.0944L5.59766 10.6782C5.62361 9.38797 6.32442 8.88853 6.62291 8.72205C6.64237 8.71511 6.66509 8.7047 6.6878 8.6943C6.71051 8.68389 6.73322 8.67349 6.75269 8.66655C7.42754 8.33359 7.97261 7.75091 8.25812 6.98787L8.36194 6.72428C8.46576 6.46068 8.79021 6.41906 8.94595 6.65491C9.8544 8.08387 11.3728 8.93015 12.9821 8.93015H17.0571C17.2907 8.93015 18.4847 9.05501 18.4977 10.8724L18.4847 11.4551L18.363 14.6648C18.2068 18.455 15.4331 21 12.0474 21C8.66168 21 5.88801 18.455 5.73175 14.6648L5.62361 11.4551Z" fill="#FFC83D"/>
<path d="M11.5545 12.3682L10.9312 14.5844C10.7967 15.0355 11.1145 15.5 11.5545 15.5H12.4956C12.9355 15.5 13.2533 15.0355 13.1189 14.5844L12.4833 12.3682C12.3367 11.8773 11.7012 11.8773 11.5545 12.3682Z" fill="#ED9200"/>
<path d="M8.58591 11.5C9.27474 11.5 9.84055 11.9797 10.185 12.5086C9.87712 12.6037 9.57761 12.6888 9.28091 12.773C8.77146 12.9177 8.2703 13.0601 7.74949 13.2467L7.17137 12.7177C6.92536 12.5086 6.94996 12.115 7.20827 11.9305C7.58958 11.6476 8.1062 11.5 8.58591 11.5Z" fill="black"/>
<path d="M15.4367 11.5C14.7602 11.5 14.1944 11.9797 13.85 12.5086C14.1509 12.6016 14.4438 12.6849 14.7334 12.7673C15.2487 12.914 15.7534 13.0576 16.2732 13.2467L16.8513 12.7177C17.0973 12.5086 17.0727 12.115 16.8144 11.9305C16.4331 11.6476 15.9164 11.5 15.4367 11.5Z" fill="black"/>
<path d="M10.2705 13.3C10.615 13.3 10.8966 13.0027 10.7658 12.684C10.4806 11.9893 9.79741 11.5 8.99993 11.5C8.20245 11.5 7.51925 11.9893 7.2341 12.684C7.10328 13.0027 7.38484 13.3 7.72935 13.3H10.2705Z" fill="white"/>
<path d="M13.7779 13.3C13.4334 13.3 13.1519 13.0027 13.2827 12.684C13.5678 11.9893 14.251 11.5 15.0485 11.5C15.846 11.5 16.5292 11.9893 16.8144 12.684C16.9452 13.0027 16.6636 13.3 16.3191 13.3H13.7779Z" fill="white"/>
<path d="M8.09998 13C8.09998 13.1036 8.1131 13.2041 8.13778 13.3H10.2706C10.3408 13.3 10.4085 13.2876 10.4706 13.2652C10.4898 13.1799 10.5 13.0911 10.5 13C10.5 12.3372 9.96272 11.8 9.29998 11.8C8.63723 11.8 8.09998 12.3372 8.09998 13Z" fill="#7D4533"/>
<path d="M15.9485 13C15.9485 13.1036 15.9353 13.2041 15.9107 13.3H13.7779C13.7076 13.3 13.64 13.2876 13.5779 13.2652C13.5586 13.1799 13.5485 13.0911 13.5485 13C13.5485 12.3372 14.0857 11.8 14.7485 11.8C15.4112 11.8 15.9485 12.3372 15.9485 13Z" fill="#7D4533"/>
<path d="M8.58008 13.03C8.58008 13.1252 8.5978 13.2162 8.63013 13.3H10.03C10.0624 13.2162 10.0801 13.1252 10.0801 13.03C10.0801 12.6158 9.74429 12.28 9.33008 12.28C8.91586 12.28 8.58008 12.6158 8.58008 13.03Z" fill="black"/>
<path d="M15.4685 13.03C15.4685 13.1252 15.4508 13.2162 15.4185 13.3H14.0186C13.9862 13.2162 13.9685 13.1252 13.9685 13.03C13.9685 12.6158 14.3043 12.28 14.7185 12.28C15.1327 12.28 15.4685 12.6158 15.4685 13.03Z" fill="black"/>
<path d="M9.29995 12.4C9.29995 12.5657 9.16564 12.7 8.99995 12.7C8.83427 12.7 8.69995 12.5657 8.69995 12.4C8.69995 12.2343 8.83427 12.1 8.99995 12.1C9.16564 12.1 9.29995 12.2343 9.29995 12.4Z" fill="white"/>
<path d="M14.7485 12.4C14.7485 12.5657 14.8828 12.7 15.0485 12.7C15.2142 12.7 15.3485 12.5657 15.3485 12.4C15.3485 12.2343 15.2142 12.1 15.0485 12.1C14.8828 12.1 14.7485 12.2343 14.7485 12.4Z" fill="white"/>
<path d="M7.72871 10.8758C7.84542 10.7591 8.07107 10.6184 8.38269 10.5068C8.68908 10.397 9.05665 10.3235 9.44109 10.3235C9.61977 10.3235 9.76462 10.1787 9.76463 9.99999C9.76463 9.82131 9.61979 9.67646 9.44111 9.67645C8.97694 9.67644 8.53568 9.76467 8.16452 9.8976C7.79859 10.0287 7.47795 10.2115 7.27113 10.4183C7.1448 10.5447 7.14481 10.7495 7.27117 10.8759C7.39752 11.0022 7.60237 11.0022 7.72871 10.8758Z" fill="#D37034"/>
<path d="M16.3299 10.8758C16.2132 10.7591 15.9875 10.6184 15.6759 10.5068C15.3695 10.397 15.0019 10.3235 14.6175 10.3235C14.4388 10.3235 14.294 10.1787 14.294 9.99999C14.294 9.82131 14.4388 9.67646 14.6175 9.67645C15.0817 9.67644 15.5229 9.76467 15.8941 9.8976C16.26 10.0287 16.5806 10.2115 16.7875 10.4183C16.9138 10.5447 16.9138 10.7495 16.7874 10.8759C16.6611 11.0022 16.4562 11.0022 16.3299 10.8758Z" fill="#D37034"/>
<path d="M11.9979 16.9893C11.3208 16.9893 10.7084 16.7585 10.2535 16.5176C10.0906 16.4313 9.91723 16.67 10.0433 16.8199C10.5098 17.3746 11 17.9993 11.9979 17.9993C12.9958 17.9993 13.5121 17.4468 13.961 16.9035C14.0871 16.7509 13.881 16.4937 13.7154 16.5776C13.2804 16.7982 12.6966 16.9893 11.9979 16.9893Z" fill="#990839"/>
<path d="M22.7197 12.6412C23.0126 12.3483 23.4874 12.3483 23.7803 12.6412C24.0732 12.9341 24.0732 13.409 23.7803 13.7019L23.4822 14C23.4822 14 27.8736 13.3611 28.5247 13.25C28.8205 13.2055 29.2586 13.25 29.2586 13.6913C29.5972 13.7195 29.8846 13.9766 29.9374 14.3272C29.9793 14.606 29.862 14.872 29.6537 15.0329C29.615 15.3603 29.362 15.6346 29.0203 15.686L28.861 15.71C28.8774 16.0883 28.606 16.4257 28.2232 16.4833C28.2232 16.4833 25.5 16.75 25 17H21V15.5C21 15 21.2116 14.2884 21.5 14L22.7197 12.6412Z" fill="#FFC83D"/>
<path d="M29.7658 14.9262C29.7332 14.9643 29.6968 14.9992 29.6571 15.0303L29.6339 14.8978C29.5774 14.5223 29.2272 14.2638 28.8517 14.3203L25.0093 14.8986C24.9752 14.9037 24.9433 14.8802 24.9382 14.8461C24.9331 14.8119 24.9566 14.7801 24.9907 14.775L28.8331 14.1967C29.2766 14.1299 29.6903 14.4351 29.7574 14.8784L29.7658 14.9262Z" fill="#D67D00"/>
<path d="M28.9471 15.6971L28.861 15.71C28.8625 15.7446 28.8616 15.7788 28.8584 15.8125L28.7926 15.6464L28.7915 15.6393C28.735 15.2638 28.3848 15.0053 28.0093 15.0618L25.7303 15.3939C25.6962 15.3989 25.6645 15.3752 25.6595 15.3411C25.6545 15.3069 25.6782 15.2752 25.7123 15.2702L27.9907 14.9382C28.432 14.8718 28.8438 15.1737 28.914 15.6135L28.9471 15.6971Z" fill="#D67D00"/>
<path d="M29.2439 13.5612C29.253 13.5979 29.2581 13.6384 29.2586 13.6831C29.2569 13.6857 29.2567 13.6884 29.2587 13.6913C29.2587 13.6913 24.5351 14.4451 24.501 14.4502C24.4669 14.4554 24.435 14.4319 24.4299 14.3977C24.4248 14.3636 24.4483 14.3318 24.4824 14.3266L29.2439 13.5612Z" fill="#D67D00"/>
</svg>

<svg xmlns="http://www.w3.org/2000/svg" width="32" height="32" fill="none"><path fill="#F1A11E" d="M21.748 13.05c0 .658-.142 1.289-.414 1.854a.677.677 0 0 0 0 .59c.259.553.414 1.17.414 1.827 0 2.313-1.837 4.179-4.115 4.179H6.659c-2.278 0-4.115-1.866-4.115-4.179 0-.657.155-1.274.414-1.826a.677.677 0 0 0 0-.591 4.41 4.41 0 0 1-.414-1.853c0-.879.257-1.678.695-2.36l.003-.005c.44-.684.673-1.485.673-2.3 0-2.328 1.831-4.237 4.11-4.295l.109-.002a.72.72 0 0 0 .582-.302A4.208 4.208 0 0 1 12.146 2c1.41 0 2.666.71 3.43 1.787.129.197.349.302.582.302 2.33 0 4.218 1.919 4.218 4.284v.013c0 .815.233 1.616.673 2.3l.003.004c.141.209.257.43.36.666h-.007c.22.519.343 1.088.343 1.695Z"/><path fill="#FDBB11" d="M8 12.658a2 2 0 1 1-4 0 2 2 0 0 1 4 0ZM20 12.658a2 2 0 1 1-4 0 2 2 0 0 1 4 0Z"/><path fill="#8B62BF" d="M22 30v-.384C22 24.311 17.526 20 12 20c-5.526.01-10 4.311-10 9.616V30h20Z"/><path fill="#FCB100" d="M12 23.5c-1.381 0-2.5-1.215-2.5-2.715V19h5v1.785c0 1.5-1.119 2.715-2.5 2.715Z"/><path fill="#8B62BF" d="m25 17-1.996-.215L21 17a.25.25 0 0 0-.25.25V18l2.254.297L25.25 18v-.75A.25.25 0 0 0 25 17Z"/><path fill="#A17FD5" d="M26 30V18.91c0-.5-.387-.91-.86-.91h-4.28c-.473 0-.86.41-.86.91V30h6Z"/><path fill="#FFC83D" d="m5.624 11.455-.013-.36-.013-.417c.026-1.29.726-1.79 1.025-1.956.02-.007.042-.017.065-.028a.865.865 0 0 1 .065-.027 3.044 3.044 0 0 0 1.505-1.68l.104-.263c.104-.263.428-.305.584-.07.908 1.43 2.427 2.276 4.036 2.276h4.075c.234 0 1.428.125 1.44 1.942l-.012.583-.122 3.21c-.156 3.79-2.93 6.335-6.316 6.335-3.385 0-6.159-2.545-6.315-6.335l-.108-3.21Z"/><path fill="#ED9200" d="m11.555 12.368-.624 2.216c-.134.452.184.916.624.916h.94c.44 0 .758-.464.624-.916l-.636-2.216a.477.477 0 0 0-.928 0Z"/><path fill="#000" d="M8.586 11.5c.689 0 1.255.48 1.599 1.009-.308.095-.607.18-.904.264-.51.145-1.01.287-1.532.474l-.578-.53a.505.505 0 0 1 .037-.787c.382-.282.898-.43 1.378-.43ZM15.437 11.5c-.677 0-1.243.48-1.587 1.009.3.093.594.176.883.258.516.147 1.02.29 1.54.48l.578-.53a.505.505 0 0 0-.037-.787c-.38-.282-.898-.43-1.377-.43Z"/><path fill="#fff" d="M10.27 13.3c.345 0 .627-.297.496-.616a1.909 1.909 0 0 0-3.532 0c-.13.319.15.616.495.616h2.542ZM13.778 13.3c-.345 0-.626-.297-.495-.616a1.909 1.909 0 0 1 3.531 0c.131.319-.15.616-.495.616h-2.541Z"/><path fill="#7D4533" d="M8.1 13c0 .104.013.204.038.3h2.133a.59.59 0 0 0 .2-.035A1.2 1.2 0 1 0 8.1 13ZM15.948 13c0 .104-.013.204-.037.3h-2.133a.59.59 0 0 1-.2-.035 1.2 1.2 0 1 1 2.37-.265Z"/><path fill="#000" d="M8.58 13.03c0 .095.018.186.05.27h1.4a.75.75 0 1 0-1.45-.27ZM15.469 13.03a.749.749 0 0 1-.05.27h-1.4a.75.75 0 1 1 1.45-.27Z"/><path fill="#fff" d="M9.3 12.4a.3.3 0 1 1-.6 0 .3.3 0 0 1 .6 0ZM14.748 12.4a.3.3 0 1 0 .6 0 .3.3 0 0 0-.6 0Z"/><path fill="#D37034" d="M7.729 10.876c.116-.117.342-.258.654-.37.306-.109.674-.183 1.058-.183a.324.324 0 1 0 0-.647c-.464 0-.905.089-1.276.222-.366.13-.687.313-.894.52a.324.324 0 0 0 .458.458ZM16.33 10.876c-.117-.117-.342-.258-.654-.37a3.183 3.183 0 0 0-1.059-.183.323.323 0 1 1 0-.647c.465 0 .906.089 1.277.222.366.13.687.313.894.52a.324.324 0 0 1-.458.458Z"/><path fill="#990839" d="M11.998 16.99c-.677 0-1.29-.231-1.744-.472-.163-.087-.337.152-.21.302.466.555.956 1.18 1.954 1.18s1.514-.553 1.963-1.096c.126-.153-.08-.41-.246-.326a3.791 3.791 0 0 1-1.717.411Z"/><path fill="#FFC83D" d="M22.72 12.641a.75.75 0 1 1 1.06 1.06l-.298.299s4.392-.639 5.043-.75c.296-.044.734 0 .734.441a.75.75 0 0 1 .395 1.342.75.75 0 0 1-.634.653l-.159.024a.75.75 0 0 1-.638.773S25.5 16.75 25 17h-4v-1.5c0-.5.212-1.212.5-1.5l1.22-1.359Z"/><path fill="#D67D00" d="M29.766 14.926a.76.76 0 0 1-.109.104l-.023-.132a.687.687 0 0 0-.782-.578l-3.843.579a.063.063 0 0 1-.018-.124l3.842-.578a.812.812 0 0 1 .924.681l.009.048Z"/><path fill="#D67D00" d="m28.947 15.697-.086.013a.743.743 0 0 1-.003.102l-.065-.166-.002-.007a.687.687 0 0 0-.782-.577l-2.279.332a.062.062 0 0 1-.018-.124l2.279-.332a.813.813 0 0 1 .923.675l.033.084ZM29.244 13.561a.53.53 0 0 1 .015.13l-4.758.76a.062.062 0 1 1-.019-.124l4.762-.766Z"/></svg>
